public/presets/astro-03-light-pollution-cut.xmp
<?xpacket begin="﻿" id="W5M0MpCehiHzreSzNTczkc9d"?>
<x:xmpmeta xmlns:x="adobe:ns:meta/" x:xmptk="Astro NPF">
 <rdf:RDF xmlns:rdf="http://www.w3.org/1999/02/22-rdf-syntax-ns#">
  <rdf:Description rdf:about="" xmlns:crs="http://ns.adobe.com/camera-raw-settings/1.0/"
   crs:PresetType="Normal" crs:UUID="B1536910-034B-4F41-A9C5-B0853BA32B4C"
   crs:SupportsAmount="True" crs:SupportsColor="True" crs:SupportsMonochrome="False"
   crs:SupportsHighDynamicRange="True" crs:SupportsNormalDynamicRange="True"
   crs:SupportsSceneReferred="True" crs:SupportsOutputReferred="True"
   crs:Version="15.4" crs:ProcessVersion="15.4" crs:Contrast2012="+15"
   crs:Highlights2012="-40" crs:Shadows2012="+10" crs:Whites2012="+8"
   crs:Blacks2012="-18" crs:Texture="+10" crs:Clarity2012="+10" crs:Dehaze="+20"
   crs:Vibrance="+10" crs:Saturation="0" crs:SaturationAdjustmentOrange="-20"
   crs:SaturationAdjustmentYellow="-30" crs:SaturationAdjustmentBlue="+10"
   crs:LuminanceAdjustmentBlue="-10" crs:ColorGradeShadowHue="220"
   crs:ColorGradeShadowSat="8" crs:ColorGradeShadowLum="0" crs:ColorGradeBlending="50"
   crs:ColorGradeBalance="-10" crs:Sharpness="30" crs:SharpenRadius="0.8"
   crs:SharpenDetail="15" crs:SharpenEdgeMasking="80" crs:LuminanceSmoothing="18"
   crs:LuminanceNoiseReductionDetail="50" crs:LuminanceNoiseReductionContrast="0"
   crs:ColorNoiseReduction="30" crs:ColorNoiseReductionDetail="50"
   crs:ColorNoiseReductionSmoothness="50" crs:AutoLateralCA="1">
   <crs:Name><rdf:Alt><rdf:li xml:lang="x-default">Astro 03 · Light Pollution Cut</rdf:li></rdf:Alt></crs:Name>
   <crs:ShortName><rdf:Alt><rdf:li xml:lang="x-default">Light Pollution Cut</rdf:li></rdf:Alt></crs:ShortName>
   <crs:SortName><rdf:Alt><rdf:li xml:lang="x-default">03 Light Pollution Cut</rdf:li></rdf:Alt></crs:SortName>
   <crs:Group><rdf:Alt><rdf:li xml:lang="x-default">Astro NPF · Night Sky</rdf:li></rdf:Alt></crs:Group>
  </rdf:Description>
 </rdf:RDF>
</x:xmpmeta>
<?xpacket end="w"?>
