public/presets/astro-02-milky-way-pop.xmp
<?xpacket begin="﻿" id="W5M0MpCehiHzreSzNTczkc9d"?>
<x:xmpmeta xmlns:x="adobe:ns:meta/" x:xmptk="Astro NPF">
 <rdf:RDF xmlns:rdf="http://www.w3.org/1999/02/22-rdf-syntax-ns#">
  <rdf:Description rdf:about="" xmlns:crs="http://ns.adobe.com/camera-raw-settings/1.0/"
   crs:PresetType="Normal" crs:UUID="0FE5E441-AE22-42DC-8DE5-828777392372"
   crs:SupportsAmount="True" crs:SupportsColor="True" crs:SupportsMonochrome="False"
   crs:SupportsHighDynamicRange="True" crs:SupportsNormalDynamicRange="True"
   crs:SupportsSceneReferred="True" crs:SupportsOutputReferred="True"
   crs:Version="15.4" crs:ProcessVersion="15.4" crs:Contrast2012="+18"
   crs:Highlights2012="-35" crs:Shadows2012="+20" crs:Whites2012="+22"
   crs:Blacks2012="-24" crs:Texture="+15" crs:Clarity2012="+15" crs:Dehaze="+25"
   crs:Vibrance="+18" crs:Saturation="-2" crs:SaturationAdjustmentBlue="+10"
   crs:SaturationAdjustmentPurple="+8" crs:SaturationAdjustmentMagenta="+8"
   crs:LuminanceAdjustmentBlue="-15" crs:Sharpness="35" crs:SharpenRadius="0.8"
   crs:SharpenDetail="20" crs:SharpenEdgeMasking="80" crs:LuminanceSmoothing="10"
   crs:LuminanceNoiseReductionDetail="50" crs:LuminanceNoiseReductionContrast="0"
   crs:ColorNoiseReduction="30" crs:ColorNoiseReductionDetail="50"
   crs:ColorNoiseReductionSmoothness="50" crs:AutoLateralCA="1">
   <crs:Name><rdf:Alt><rdf:li xml:lang="x-default">Astro 02 · Milky Way Pop</rdf:li></rdf:Alt></crs:Name>
   <crs:ShortName><rdf:Alt><rdf:li xml:lang="x-default">Milky Way Pop</rdf:li></rdf:Alt></crs:ShortName>
   <crs:SortName><rdf:Alt><rdf:li xml:lang="x-default">02 Milky Way Pop</rdf:li></rdf:Alt></crs:SortName>
   <crs:Group><rdf:Alt><rdf:li xml:lang="x-default">Astro NPF · Night Sky</rdf:li></rdf:Alt></crs:Group>
  </rdf:Description>
 </rdf:RDF>
</x:xmpmeta>
<?xpacket end="w"?>
