public/presets/astro-01-clean-natural.xmp
<?xpacket begin="﻿" id="W5M0MpCehiHzreSzNTczkc9d"?>
<x:xmpmeta xmlns:x="adobe:ns:meta/" x:xmptk="Astro NPF">
 <rdf:RDF xmlns:rdf="http://www.w3.org/1999/02/22-rdf-syntax-ns#">
  <rdf:Description rdf:about="" xmlns:crs="http://ns.adobe.com/camera-raw-settings/1.0/"
   crs:PresetType="Normal" crs:UUID="39CED21A-E945-4C93-B0E2-51AD35AC3C14"
   crs:SupportsAmount="True" crs:SupportsColor="True" crs:SupportsMonochrome="False"
   crs:SupportsHighDynamicRange="True" crs:SupportsNormalDynamicRange="True"
   crs:SupportsSceneReferred="True" crs:SupportsOutputReferred="True"
   crs:Version="15.4" crs:ProcessVersion="15.4" crs:Contrast2012="+10"
   crs:Highlights2012="-25" crs:Shadows2012="+15" crs:Whites2012="+10"
   crs:Blacks2012="-12" crs:Texture="+8" crs:Clarity2012="+8" crs:Dehaze="+12"
   crs:Vibrance="+8" crs:Saturation="0" crs:Sharpness="30" crs:SharpenRadius="0.8"
   crs:SharpenDetail="15" crs:SharpenEdgeMasking="80" crs:LuminanceSmoothing="15"
   crs:LuminanceNoiseReductionDetail="50" crs:LuminanceNoiseReductionContrast="0"
   crs:ColorNoiseReduction="30" crs:ColorNoiseReductionDetail="50"
   crs:ColorNoiseReductionSmoothness="50" crs:AutoLateralCA="1">
   <crs:Name><rdf:Alt><rdf:li xml:lang="x-default">Astro 01 · Clean Natural</rdf:li></rdf:Alt></crs:Name>
   <crs:ShortName><rdf:Alt><rdf:li xml:lang="x-default">Clean Natural</rdf:li></rdf:Alt></crs:ShortName>
   <crs:SortName><rdf:Alt><rdf:li xml:lang="x-default">01 Clean Natural</rdf:li></rdf:Alt></crs:SortName>
   <crs:Group><rdf:Alt><rdf:li xml:lang="x-default">Astro NPF · Night Sky</rdf:li></rdf:Alt></crs:Group>
  </rdf:Description>
 </rdf:RDF>
</x:xmpmeta>
<?xpacket end="w"?>
