public/presets/astro-04-warm-galactic-core.xmp
<?xpacket begin="﻿" id="W5M0MpCehiHzreSzNTczkc9d"?>
<x:xmpmeta xmlns:x="adobe:ns:meta/" x:xmptk="Astro NPF">
 <rdf:RDF xmlns:rdf="http://www.w3.org/1999/02/22-rdf-syntax-ns#">
  <rdf:Description rdf:about="" xmlns:crs="http://ns.adobe.com/camera-raw-settings/1.0/"
   crs:PresetType="Normal" crs:UUID="A8A8A5D9-FE4C-4B9C-989B-374F127B49D8"
   crs:SupportsAmount="True" crs:SupportsColor="True" crs:SupportsMonochrome="False"
   crs:SupportsHighDynamicRange="True" crs:SupportsNormalDynamicRange="True"
   crs:SupportsSceneReferred="True" crs:SupportsOutputReferred="True"
   crs:Version="15.4" crs:ProcessVersion="15.4" crs:Contrast2012="+12"
   crs:Highlights2012="-30" crs:Shadows2012="+18" crs:Whites2012="+15"
   crs:Blacks2012="-16" crs:Texture="+10" crs:Clarity2012="+12" crs:Dehaze="+18"
   crs:Vibrance="+16" crs:Saturation="0" crs:ColorGradeShadowHue="225"
   crs:ColorGradeShadowSat="5" crs:ColorGradeShadowLum="0" crs:ColorGradeMidtoneHue="35"
   crs:ColorGradeMidtoneSat="10" crs:ColorGradeMidtoneLum="0" crs:ColorGradeHighlightHue="45"
   crs:ColorGradeHighlightSat="8" crs:ColorGradeHighlightLum="0" crs:ColorGradeBlending="55"
   crs:ColorGradeBalance="+10" crs:Sharpness="32" crs:SharpenRadius="0.8"
   crs:SharpenDetail="18" crs:SharpenEdgeMasking="80" crs:LuminanceSmoothing="12"
   crs:LuminanceNoiseReductionDetail="50" crs:LuminanceNoiseReductionContrast="0"
   crs:ColorNoiseReduction="30" crs:ColorNoiseReductionDetail="50"
   crs:ColorNoiseReductionSmoothness="50" crs:AutoLateralCA="1">
   <crs:Name><rdf:Alt><rdf:li xml:lang="x-default">Astro 04 · Warm Galactic Core</rdf:li></rdf:Alt></crs:Name>
   <crs:ShortName><rdf:Alt><rdf:li xml:lang="x-default">Warm Galactic Core</rdf:li></rdf:Alt></crs:ShortName>
   <crs:SortName><rdf:Alt><rdf:li xml:lang="x-default">04 Warm Galactic Core</rdf:li></rdf:Alt></crs:SortName>
   <crs:Group><rdf:Alt><rdf:li xml:lang="x-default">Astro NPF · Night Sky</rdf:li></rdf:Alt></crs:Group>
  </rdf:Description>
 </rdf:RDF>
</x:xmpmeta>
<?xpacket end="w"?>
